assets/images/misc/spiral_long_arrow.svg

<svg width="287" height="92" viewBox="0 0 287 92" fill="none" xmlns="http://www.w3.org/2000/svg">
<path d="M2.21206 35.7955L0.676759 54.2263L17.4059 46.3405L2.21206 35.7955ZM286.189 3.00536C286.591 2.21783 286.28 1.25285 285.492 0.850013C284.705 0.447172 283.74 0.759039 283.337 1.54658L286.189 3.00536ZM8.35844 48.8346L6.98528 49.6591C22.292 75.1516 51.8694 89.9746 79.2788 91.1402C93.0044 91.7239 106.293 88.8891 117.031 82.148C127.799 75.3882 135.917 64.75 139.313 49.9312L137.752 49.5734L136.191 49.2156C132.984 63.2102 125.374 73.1284 115.328 79.435C105.252 85.7603 92.6392 88.5021 79.4149 87.9397C52.9249 86.8132 24.4083 72.4533 9.7316 48.0101L8.35844 48.8346ZM137.752 49.5734L139.313 49.9312C141.564 40.1089 142.488 32.1702 142.455 25.8634C142.421 19.5699 141.432 14.8187 139.781 11.4342C138.12 8.02952 135.743 5.93663 132.984 5.2196C130.243 4.50729 127.428 5.23245 125.037 6.84788C120.28 10.0629 116.863 16.9724 117.845 25.1048C118.835 33.2995 124.247 42.6042 136.871 50.9114L137.752 49.5734L138.632 48.2354C126.573 40.3002 121.874 31.7449 121.026 24.7206C120.17 17.6339 123.186 11.9653 126.831 9.50202C128.642 8.27829 130.521 7.88923 132.178 8.31998C133.817 8.74601 135.543 10.0534 136.902 12.8388C138.271 15.6442 139.219 19.8725 139.251 25.8806C139.283 31.8753 138.403 39.5601 136.191 49.2156L137.752 49.5734ZM137.752 49.5734L136.871 50.9114C154.814 62.718 183.937 66.7417 212.574 59.8963C241.275 53.0355 269.717 35.2066 286.189 3.00536L284.763 2.27597L283.337 1.54658C267.363 32.7758 239.782 50.0988 211.829 56.7807C183.812 63.478 155.653 59.4351 138.632 48.2354L137.752 49.5734Z" fill="#87C1E6"/>
</svg>

<svg xmlns="http://www.w3.org/2000/svg" width="287" height="92" fill="none"><path fill="#87C1E6" d="M2.212 35.796.677 54.226l16.729-7.885zM286.19 3.005a1.602 1.602 0 0 0-2.852-1.46zM8.359 48.834l-1.374.824C22.292 75.152 51.87 89.975 79.28 91.14c13.725.584 27.014-2.25 37.752-8.992 10.768-6.76 18.886-17.398 22.282-32.217l-1.561-.358-1.561-.357c-3.207 13.994-10.817 23.912-20.863 30.219-10.076 6.325-22.689 9.067-35.913 8.505-26.49-1.127-55.007-15.487-69.683-39.93zm129.393.738 1.561.358c2.251-9.822 3.175-17.76 3.142-24.068-.034-6.293-1.023-11.044-2.674-14.429-1.661-3.404-4.038-5.497-6.797-6.214-2.741-.713-5.556.012-7.947 1.628-4.757 3.215-8.174 10.124-7.192 18.257.99 8.195 6.402 17.5 19.026 25.806zl.88-1.338c-12.059-7.935-16.758-16.49-17.606-23.514-.856-7.087 2.16-12.756 5.805-15.219 1.811-1.224 3.69-1.613 5.347-1.182 1.639.426 3.365 1.733 4.724 4.519 1.369 2.805 2.317 7.033 2.349 13.042.032 5.994-.848 13.68-3.06 23.335zm0 0-.881 1.338c17.943 11.807 47.066 15.83 75.703 8.985 28.701-6.86 57.143-24.69 73.615-56.89l-1.426-.73-1.426-.73c-15.974 31.23-43.555 48.553-71.508 55.235-28.017 6.697-56.176 2.654-73.197-8.546z"/></svg>
